X:1
T:Title
%%score ( 1 2 ) { 3 | 4 }
L:1/8
M:3/2
K:Eb
V:1 treble nm="Grand Piano, Soprano"
V:2 treble 
V:3 bass nm="Choir Pad, Southport (Kingsley), CM"
V:4 bass 
V:1
 E2 F2 [EG]3 [EG] [EG]4 | [EB]4 [Ec]3 [EA] [EA]4 | [Ec]4 [DB]3 [DF] [DF]4 | [EG]2 [FA]2 [EG]8 | %4
w: By~George~Kingsley,~1868 * * * *||||
 [EG]2 [FA]2 [GB]3 [GB] [GB]4 | [Ge]4 [Ae]3 [Ac] [Ac]4 | [Ac]4 [FB]3 [DF] F2 B2 | A2 F2 E8 |] %8
w: ||||
V:2
 B,4 z4 z4 | x12 | x12 | x12 | x12 | x12 | z4 z4 D4 | D4 z4 z4 |] %8
V:3
 G,2 A,2 B,3 B, B,4 | G,4 A,3 C C4 | A,4 F,3 B, B,4 | B,4 B,8 | B,4[K:treble] E3 E E4 | %5
 B,4 C3 E E4 | E4 D3[K:bass] B, B,4 | B,2 A,2 G,8 |] %8
V:4
 E,4 E,3 E, E,4 | E,4 A,,3 A,, A,,4 | A,,4 B,,3 B,, B,,4 | B,,4 E,8 | E,4 E,3 E, E,4 | %5
 E,4 A,3 A, A,4 | A,,4 B,,3 B,, B,,4 | B,,4 E,8 |] %8

